svgs/duotone/clipboard-medical.svg

<svg xmlns="http://www.w3.org/2000/svg" viewBox="0 0 384 512"><!--! Font Awesome Pro 6.2.0 by @fontawesome - https://fontawesome.com License - https://fontawesome.com/license (Commercial License) Copyright 2022 Fonticons, Inc. --><path d="M113.2 66.3c.1-.8 .3-1.6 .4-2.3H64C28.7 64 0 92.7 0 128V448c0 35.3 28.7 64 64 64H320c35.3 0 64-28.7 64-64V128c0-35.3-28.7-64-64-64H270.4c.2 .8 .3 1.6 .4 2.3C290.1 72.6 304 90.7 304 112v24c0 13.3-10.7 24-24 24H192 104c-13.3 0-24-10.7-24-24V112c0-21.3 13.9-39.4 33.2-45.7zM160 240c0-8.8 7.2-16 16-16h32c8.8 0 16 7.2 16 16v48h48c8.8 0 16 7.2 16 16v32c0 8.8-7.2 16-16 16H224v48c0 8.8-7.2 16-16 16H176c-8.8 0-16-7.2-16-16V352H112c-8.8 0-16-7.2-16-16V304c0-8.8 7.2-16 16-16h48V240z" class="fa-secondary"/></svg>

<svg xmlns="http://www.w3.org/2000/svg" viewBox="0 0 384 512"><!--! Font Awesome Pro 6.2.0 by @fontawesome - https://fontawesome.com License - https://fontawesome.com/license (Commercial License) Copyright 2022 Fonticons, Inc. --><defs><style>.fa-secondary{opacity:.4}</style></defs><path class="fa-primary" d="M256 64c0-35.35-28.65-64-64-64S128 28.65 128 64C92.65 64 64 92.65 64 128v16C64 152.8 71.16 160 80 160h224C312.8 160 320 152.8 320 144V128C320 92.65 291.3 64 256 64zM192 88C178.7 88 168 77.25 168 64c0-13.26 10.75-24 24-24S216 50.74 216 64C216 77.25 205.3 88 192 88zM272 288H224V240C224 231.2 216.8 224 208 224h-32C167.2 224 160 231.2 160 240V288H112C103.2 288 96 295.2 96 304v32C96 344.8 103.2 352 112 352H160v48C160 408.8 167.2 416 176 416h32c8.8 0 16-7.2 16-16V352h48c8.8 0 16-7.2 16-16v-32C288 295.2 280.8 288 272 288z"/><path class="fa-secondary" d="M336 64H256c35.35 0 64 28.65 64 64v16C320 152.8 312.8 160 304 160h-224C71.16 160 64 152.8 64 144V128c0-35.35 28.65-64 64-64H48C21.49 64 0 85.49 0 112v352C0 490.5 21.49 512 48 512h288c26.51 0 48-21.49 48-48v-352C384 85.49 362.5 64 336 64zM288 336c0 8.8-7.2 16-16 16H224v48c0 8.8-7.2 16-16 16h-32C167.2 416 160 408.8 160 400V352H112C103.2 352 96 344.8 96 336v-32C96 295.2 103.2 288 112 288H160V240C160 231.2 167.2 224 176 224h32C216.8 224 224 231.2 224 240V288h48C280.8 288 288 295.2 288 304V336z"/></svg>
